assets/arrow-down.svg

<svg fill="none" height="30" viewBox="0 0 30 30" width="30" xmlns="http://www.w3.org/2000/svg"><path d="m20.71 14.29c-.093-.0937-.2036-.1681-.3254-.2189-.1219-.0508-.2526-.0769-.3846-.0769s-.2627.0261-.3846.0769c-.1218.0508-.2324.1252-.3254.2189l-3.29 3.3v-7.59c0-.26522-.1054-.51957-.2929-.70711-.1875-.18753-.4419-.29289-.7071-.29289s-.5196.10536-.7071.29289c-.1875.18754-.2929.44189-.2929.70711v7.59l-3.29-3.3c-.1883-.1883-.4437-.2941-.71-.2941s-.52169.1058-.71.2941c-.1883.1883-.29409.4437-.29409.71s.10579.5217.29409.71l5 5c.0951.091.2073.1624.33.21.1197.0529.2491.0802.38.0802s.2603-.0273.38-.0802c.1228-.0476.2349-.119.33-.21l5-5c.0937-.093.1681-.2036.2189-.3254.0508-.1219.0769-.2526.0769-.3846s-.0261-.2627-.0769-.3846c-.0508-.1218-.1252-.2324-.2189-.3254z" fill="#e9e8eb"/></svg>

<svg width="30" height="30" viewBox="0 0 30 30" fill="none" xmlns="http://www.w3.org/2000/svg">
<path d="M20.71 14.29C20.617 14.1963 20.5064 14.1219 20.3846 14.0711C20.2627 14.0203 20.132 13.9942 20 13.9942C19.868 13.9942 19.7373 14.0203 19.6154 14.0711C19.4936 14.1219 19.383 14.1963 19.29 14.29L16 17.59V10C16 9.73478 15.8946 9.48043 15.7071 9.29289C15.5196 9.10536 15.2652 9 15 9C14.7348 9 14.4804 9.10536 14.2929 9.29289C14.1054 9.48043 14 9.73478 14 10V17.59L10.71 14.29C10.5217 14.1017 10.2663 13.9959 10 13.9959C9.7337 13.9959 9.47831 14.1017 9.29 14.29C9.1017 14.4783 8.99591 14.7337 8.99591 15C8.99591 15.2663 9.1017 15.5217 9.29 15.71L14.29 20.71C14.3851 20.801 14.4973 20.8724 14.62 20.92C14.7397 20.9729 14.8691 21.0002 15 21.0002C15.1309 21.0002 15.2603 20.9729 15.38 20.92C15.5028 20.8724 15.6149 20.801 15.71 20.71L20.71 15.71C20.8037 15.617 20.8781 15.5064 20.9289 15.3846C20.9797 15.2627 21.0058 15.132 21.0058 15C21.0058 14.868 20.9797 14.7373 20.9289 14.6154C20.8781 14.4936 20.8037 14.383 20.71 14.29Z" fill="#E9E8EB"/>
</svg>
